X:1
T:Make Me a Captive, Lord
T:Text: George Matheson, 1890, alt. Tune: Samuel Howard, 1762
T:SM ST. BRIDE www.hymnary.org/text/make_me_a_captive_lord
T:Make Me a Captive, Lord
T:This hymn is in the public domain.  You may freely use this score for personal and congregational worship.  If you reproduce the score, please credit Hymnary.org as the source. 
T:This hymn is in the public domain.  You may freely use this score for personal and congregational worship.  If you reproduce the score, please credit Hymnary.org as the source. 
Z:This hymn is in the public domain.  You may freely use this score for personal and congregational worship.  If you reproduce the score, please credit Hymnary.org as the source.
%%score ( 1 2 ) ( 3 4 )
L:1/8
M:4/4
K:Bb
V:1 treble nm="SOPRANO ALTO" snm="S. A."
V:2 treble 
V:3 bass nm="TENOR BASS" snm="T. B."
V:4 bass 
V:1
"^1""^2""^3""^4" G2 | D2 G2 B2 A2 | G6 B2 | F2 B2 d2 c2 | B6 |1 d2 | c2 B2 A2 G2 | F2 E2 D2 d2 | %8
w: Make|me a cap- tive,|Lord, and|then I shall be|free;|force|me to ren- der|up my sword, and|
w: I|sink in life's a-|larms when|by my- self I|stand;|im-|pris- on me with-|in thine arms, and|
w: My|will is not my|own till|thou hast made it|thine;|if|it would reach a|mon- arch's throne, it|
w: I|on- ly stand un-|bent a-|mid the clash- ing|strife|when|on thy bo- som|I have leaned and|
 G2 c2 B2 A2 | G6 x2 |] %10
w: I shall con- queror|be.|
w: strong shall be my|hand.|
w: must its crown re-|sign.|
w: found in thee my|life.|
V:2
 D2 | D2 B,C D3 C | B,6 B,2 | D2 DE F3 E | D6 |1 F2 | F2 D2 F2 E2 | D2 CB, A,2 ^F2 | G2 G2 G2 ^F2 | %9
 x6 x2 |] %10
V:3
 B,2 | G,2 G,2 G,2 ^F,2 | G,6 =F,2 | B,2 B,2 B,2 A,2 | B,6 |1 B,2 | A,2 B,2 D2 B,2 | %7
 B,A, G,2 ^F,2 A,2 | G,2 E2 D2 DC | B,6 x2 |] %10
V:4
 G,,2 | B,,2 E,2 D,2 D,2 | G,,6 D,2 | B,,2 G,2 F,2 F,,2 | B,,6 |1 B,2 | F,2 G,2 D,2 E,2 | %7
 B,,2 C,2 D,2 D,2 | E,2 C,2 D,2 D,2 | G,,6 x2 |] %10

